public/location-orbital-station.svg

<svg xmlns="http://www.w3.org/2000/svg" viewBox="0 0 512 512" style="height: 512px; width: 512px;"><path d="M0 0h512v512H0z" fill="#000" fill-opacity="1"></path><g class="" transform="translate(0,0)" style=""><path d="M372.533 21.966L362.7 39.524l24.878 36.62-8.488 44.453 34.125 50.234 19.025-12.923-2.898 61.932.1.003-9.272 173.553c-1.28 17.17-8.718 21.912-14.123 21.93-5.393.02-13.577-5.053-15.95-22.354l-15.988-223.815-.03-.234c-1.673-13.444-7.012-24.765-17.11-31.393-8.642-5.673-19.398-7.853-32.822-8.365v-7.13c0-23.016-3.88-36.357-11.302-43.844-7.42-7.487-20.523-11.384-43.608-11.156H141.148c-23 0-36.182 3.91-43.636 11.363-7.455 7.455-11.364 20.637-11.364 43.637v320h-25v48h288v-48h-25V147.208c11.228.57 18.628 2.538 22.944 5.37 5.138 3.374 7.793 8.046 9.105 18.466l15.994 223.912.04.28c3.114 23.126 17.402 38.15 33.883 38.09 16.48-.06 30.304-15.588 32.01-38.628l.008-.092 9.407-176.086-.113-.006 3.428-73.25-1.334-9.974-76.985-113.324zm29.35 75.236l27.69 40.756-11.583 7.87-19.82-29.18 3.713-19.446zm-292.735 8.832h192v80h-192v-80zm16 103h160v18h-160v-18zm0 32h160v18h-160v-18z" fill="#fff" fill-opacity="1"></path></g></svg>

<?xml version="1.0" encoding="UTF-8" standalone="no"?>
<!DOCTYPE svg PUBLIC "-//W3C//DTD SVG 1.1//EN" "http://www.w3.org/Graphics/SVG/1.1/DTD/svg11.dtd">
<svg width="100%" height="100%" viewBox="0 0 512 512" version="1.1" xmlns="http://www.w3.org/2000/svg" xmlns:xlink="http://www.w3.org/1999/xlink" xml:space="preserve" xmlns:serif="http://www.serif.com/" style="fill-rule:evenodd;clip-rule:evenodd;stroke-linejoin:round;stroke-miterlimit:2;">
    <g>
        <path d="M372.533,21.966L362.7,39.524L387.578,76.144L379.09,120.597L413.215,170.831L432.24,157.908L429.342,219.84L429.442,219.843L420.17,393.396C418.89,410.566 411.452,415.308 406.047,415.326C400.654,415.346 392.47,410.273 390.097,392.972L374.109,169.157L374.079,168.923C372.406,155.479 367.067,144.158 356.969,137.53C348.327,131.857 337.571,129.677 324.147,129.165L324.147,122.035C324.147,99.019 320.267,85.678 312.845,78.191C305.425,70.704 292.322,66.807 269.237,67.035L141.148,67.035C118.148,67.035 104.966,70.945 97.512,78.398C90.057,85.853 86.148,99.035 86.148,122.035L86.148,442.035L61.148,442.035L61.148,490.035L349.148,490.035L349.148,442.035L324.148,442.035L324.148,147.208C335.376,147.778 342.776,149.746 347.092,152.578C352.23,155.952 354.885,160.624 356.197,171.044L372.191,394.956L372.231,395.236C375.345,418.362 389.633,433.386 406.114,433.326C422.594,433.266 436.418,417.738 438.124,394.698L438.132,394.606L447.539,218.52L447.426,218.514L450.854,145.264L449.52,135.29L372.535,21.966L372.533,21.966ZM401.883,97.202L429.573,137.958L417.99,145.828L398.17,116.648L401.883,97.202ZM109.148,106.034L301.148,106.034L301.148,186.034L109.148,186.034L109.148,106.034ZM125.148,209.034L285.148,209.034L285.148,227.034L125.148,227.034L125.148,209.034ZM125.148,241.034L285.148,241.034L285.148,259.034L125.148,259.034L125.148,241.034Z" style="fill:white;fill-rule:nonzero;"/>
    </g>
</svg>
